icons/desktop/16/svg/local-host-slash-16.svg

<svg width="16" height="16" viewBox="0 0 16 16" fill="none" xmlns="http://www.w3.org/2000/svg">
<g clip-path="url(#clip0_8069_30380)">
<path fill-rule="evenodd" clip-rule="evenodd" d="M0.219727 0.21967C0.51262 -0.0732233 0.98738 -0.0732233 1.28027 0.21967L3.33984 2.27924H3.34277L4.71973 3.65619H4.7168L12.3164 11.2558H12.3193L15.5625 14.499H15.5596L15.7803 14.7197C16.0732 15.0126 16.0732 15.4873 15.7803 15.7802C15.4874 16.0731 15.0126 16.0731 14.7197 15.7802L13.1895 14.2499H0.75C0.336003 14.2499 4.64394e-06 13.9139 0 13.4999C0 13.0859 0.336 12.7499 0.75 12.7499H3.54297C3.50198 12.7459 3.45896 12.7442 3.41797 12.7392C2.03997 12.5792 1.00098 11.4038 1.00098 10.0058V4.99506C1.00098 4.19116 1.34561 3.46374 1.89941 2.9599L0.219727 1.28022C-0.0731667 0.987324 -0.0731667 0.512563 0.219727 0.21967ZM2.95898 4.01947C2.67755 4.24938 2.5 4.60276 2.5 4.99506V10.0058C2.5 10.6428 2.96792 11.1769 3.58984 11.249C4.88577 11.398 6.20486 11.4829 7.50879 11.4999C8.45579 11.5142 9.4128 11.4881 10.3672 11.4277L2.95898 4.01947Z" fill="black"/>
<path d="M4.96191 2.12983C7.48775 1.93884 10.0497 1.97274 12.5615 2.26069C13.9515 2.41969 15 3.59601 15 4.99701V10.0058C15 10.6128 14.7949 11.1718 14.4609 11.6298L13.3691 10.538C13.4461 10.374 13.5 10.1978 13.5 10.0058V4.99701C13.5 4.35901 13.0226 3.82292 12.3906 3.75092C10.9387 3.58395 9.46188 3.49994 8 3.49994C7.46132 3.49997 6.91958 3.52383 6.37891 3.54682L4.96191 2.12983Z" fill="black"/>
</g>
<defs>
<clipPath id="clip0_8069_30380">
<rect width="16" height="16" fill="white"/>
</clipPath>
</defs>
</svg>

<!-- This Source Code Form is subject to the terms of the Mozilla Public
   - License, v. 2.0. If a copy of the MPL was not distributed with this
   - file, You can obtain one at http://mozilla.org/MPL/2.0/. -->
<svg xmlns="http://www.w3.org/2000/svg" width="16" height="16" fill="context-fill" fill-opacity="context-fill-opacity" viewBox="0 0 16 16">
    <g clip-path="url(#clip0_8069_30380)">
        <path fill-rule="evenodd" d="M.22.22a.75.75 0 0 1 1.06 0l2.06 2.06h.003L4.72 3.655h-.003l7.6 7.6h.002l3.243 3.243h-.002l.22.22a.75.75 0 1 1-1.06 1.061l-1.53-1.53H.75a.75.75 0 0 1 0-1.5h2.793l-.125-.01a2.743 2.743 0 0 1-2.417-2.734v-5.01c0-.805.345-1.532.898-2.036L.22 1.28a.75.75 0 0 1 0-1.06m2.739 3.8c-.281.23-.459.583-.459.975v5.01c0 .638.468 1.172 1.09 1.244 1.296.149 2.615.234 3.919.25a37 37 0 0 0 2.858-.071z" clip-rule="evenodd" />
        <path d="M4.962 2.13a40.3 40.3 0 0 1 7.6.13A2.75 2.75 0 0 1 15 4.998v5.009a2.75 2.75 0 0 1-.54 1.624l-1.09-1.092c.076-.164.13-.34.13-.532V4.997c0-.638-.477-1.174-1.11-1.246A39 39 0 0 0 8 3.5c-.539 0-1.08.024-1.621.047z" />
    </g>
</svg>
